!!!COM: Palestrina, Giovanni Perluigi da
!!!OPR: Missa In festis Apostolorum (II)
!!!OMD: Gloria
!!!OTL: Benedicimus te
**kern	**kern	**kern	**kern	**kern
*Ibass	*Itenor	*Itenor	*Icalto	*Icant
!Bassus	!Tenor 2	!Tenor 1	!Altus	!Cantus
*clefF4	*clefGv2	*clefGv2	*clefG2	*clefG2
*k[]	*k[]	*k[]	*k[]	*k[]
*D:dor	*D:dor	*D:dor	*D:dor	*D:dor
*M4/2	*M4/2	*M4/2	*M4/2	*M4/2
=14	=14	=14	=14	=14
0r	0r	0r	2r	1a
.	.	.	2d	.
.	.	.	2A	1cc
.	.	.	[2c	.
=15	=15	=15	=15	=15
0r	0r	0r	2c]	1dd
.	.	.	2B	.
.	.	.	4A	2cc
.	.	.	4B	.
.	.	.	4c	[2cc
.	.	.	4d	.
=16	=16	=16	=16	=16
1r	1r	0r	4e	2cc]
.	.	.	4f	.
.	.	.	4g	2b
.	.	.	4e	.
1D	1A	.	1f	1a
=17	=17	=17	=17	=17
2AA	1c	1E	1e	0r
1C	.	.	.	.
.	1d	1G	2r	.
2BB	.	.	2d	.
=18	=18	=18	=18	=18
4AA	2c	1A	2f	0r
4BB	.	.	.	.
4C	1c	.	1e	.
4D	.	.	.	.
4E	.	2G	.	.
4F	.	.	.	.
2G	2B	[2G	2d	.
=19	=19	=19	=19	=19
1D	0A	2G]	1d	1a
.	.	2F	.	.
1AA	.	2E	1e	1cc
.	.	[2A	.	.
=20	=20	=20	=20	=20
1D	2r	2A]	1f	1dd
.	2A	2F	.	.
2AA	1c	2A	1e	2cc
2C	.	2G	.	[2cc
=21	=21	=21	=21	=21
2GG	1.d	4G	1g	2cc]
.	.	4F	.	.
2GG	.	4D	.	2b
.	.	4E	.	.
2.AA	.	4F	2f	2a
.	.	4G	.	.
.	2c	2A	2e	[2cc
4GG	.	.	.	.
=22	=22	=22	=22	=22
4AA	1c	[0E	0e	4cc]
4BB	.	.	.	4b
4C	.	.	.	1a
4D	.	.	.	.
1E	1B	.	.	.
.	.	.	.	2g#
=23	=23	=23	=23	=23
[0AA	[0A	1E_	[0c#	[0a
.	.	1E_	.	.
=24	=24	=24	=24	=24
0AA]	0A]	0E]	0c#]	0a]
*-	*-	*-	*-	*-
!!!CDT: 1525/^1526/-1594/2/2
!!!OCY: Italia
!!!AGN: Mass (Paraphrase)
!!!AST: renaissance, vocal
!!!ASW: Gregorian Mass
!!!PWK: Masses, Book Mantuan II
!!!RNB: Cadence finals: A
!!!YOR: Le Opere Complete, v. 19, p. 1
!!!YOO: Rome, Italy: Fratelli Scalera
!!!END: 1992//
!!!EED: John Miller
!!!YEC: Copyright 2000, John Miller
!!!YEN: United States of America
!!!YEM: Rights to all derivative electronic formats reserved.
!!!YEM: Refer to licensing agreement for further details.
!!!YEM: This file must be accompanied by the licensing agreement.
!!!YEM: A copy of the licensing agreement may be found at http://www.music-cog.ohio-state.edu/HumdrumDatabases/Palestrina/license.txt
!!!EMD: converted to Humdrum by Bret Aarden
